X: 1
T: the Lovat Scouts variation
C: J. S. Skinner
B: BSFC Session Tune Book 2016 p.29
R: Quickstep March
M: 2/4
L: 1/16
K: A
ee |\
"A"AAcA eAcA | "D"d<dfd a2gf |\
"A"eaga "(F#m)"ecAc | "Bm"B4- "E7"B2ec ||\
"A"A<AcA eAcA | "D"defg a2gf |
"A"e3c "E"d2B2 | "A"A4 A2 :|\
(3(efg) |\
"A"aAce agfe | "D"fgaf defd |\
"A"efga "(F#m)"ecAc | "Bm"B4- "E7"B2 (3(efg) |
"A"aAce agfe | "D"fgaf defd ||\
"A"efga "E"ecdB | "A"A4 A2 |]\
(3(efg) |\
"A"aAce agfe | "D"fgaf defd |
"A"efga "(F#m)"ecAc | "Bm"B4- "E7"B2 ec ||\
"A"ABcd "A7"eAcA | "D"defg a2gf |\
"A"e3c "E"d2B2 | "A"A4 A2 |]
